svgs/sharp-light/shuttle-space.svg

<svg xmlns="http://www.w3.org/2000/svg" viewBox="0 0 640 512"><!--! Font Awesome Pro 6.6.0 by @fontawesome - https://fontawesome.com License - https://fontawesome.com/license (Commercial License) Copyright 2024 Fonticons, Inc. --><path d="M192 480L405.3 352l58.7 0c69.8 0 123.8-31.8 164.8-86.4L636 256l-7.2-9.6c-41-54.6-95-86.4-164.8-86.4l-58.7 0L192 32 64 32 32 32l0 32 0 64-16 0L0 128l0 16L0 368l0 16 16 0 16 0 0 64 0 32 32 0 128 0zM64 384l32 0 3.1 0 2.9-1.1L128 372.4l0 75.6-64 0 0-64zm119.1 64L160 448l0-88.4 19.1-7.6 164.1 0-160 96zM64 352l-32 0 0-80 144 0 16 0 0-32-16 0L32 240l0-80 32 0 28.9 0 77.1 30.9 2.9 1.1 3.1 0 288 0c54.2 0 97.1 22.4 131.6 64c-34.6 41.6-77.4 64-131.6 64l-288 0-3.1 0-2.9 1.1L92.9 352 64 352zm0-224l0-64 64 0 0 75.6-26.1-10.4L99.1 128 96 128l-32 0zm115.1 32L160 152.4 160 64l23.1 0 160 96-164.1 0zM480 288l0-64-32 0 0 64 32 0z"/></svg>

<svg xmlns="http://www.w3.org/2000/svg" viewBox="0 0 640 512"><!--! Font Awesome Pro 6.4.2 by @fontawesome - https://fontawesome.com License - https://fontawesome.com/license (Commercial License) Copyright 2023 Fonticons, Inc. --><path d="M192 480L405.3 352H464c69.8 0 123.8-31.8 164.8-86.4L636 256l-7.2-9.6c-41-54.6-95-86.4-164.8-86.4H405.3L192 32H64 32V64v64H16 0v16V368v16H16 32v64 32H64 192zM64 384H96h3.1l2.9-1.1L128 372.4V448H64V384zm119.1 64H160V359.6l19.1-7.6H343.1l-160 96zM64 352H32V272H176h16V240H176 32V160H64 92.9l77.1 30.9 2.9 1.1H176 464c54.2 0 97.1 22.4 131.6 64c-34.6 41.6-77.4 64-131.6 64H176h-3.1l-2.9 1.1L92.9 352H64zm0-224V64h64v75.6l-26.1-10.4L99.1 128H96 64zm115.1 32L160 152.4V64h23.1l160 96H179.1zM480 288V224H448v64h32z"/></svg>
